packages/icons/src/graduation-cap-fill.svg

<svg xmlns="http://www.w3.org/2000/svg" width="24" height="24" fill="none" viewBox="0 0 24 24">
  <path fill="#000" d="M21 17v-6.9L12 15 1 9l11-6 11 6v8h-2Zm-9 4-7-3.8v-5l7 3.8 7-3.8v5L12 21Z"/>
</svg>

<svg width="24" height="24" viewBox="0 0 24 24" fill="none" xmlns="http://www.w3.org/2000/svg">
<path d="M21 17V10.1L12 15L1 9L12 3L23 9V17H21ZM12 21L5 17.2V12.2L12 16L19 12.2V17.2L12 21Z" fill="black"/>
</svg>
